X: 23980
T: Lockdown, The
R: reel
M: 4/4
K: Dmajor
de|:fd d/c/d AG F/G/A|DEFA d2 ef|g2 edcA A2|cdec Acec|
d2 AGFD D2|A,DFA d2 ef|g2 fg edcd|e2 dc d2 de:|
|:fa a/^g/a baaf|dfaf bfaf|eA A/B/A EA A/B/A|cdef gece|
d2 fd AG F/G/A|G2 BG DGBd|cdef gecd|1 edce d2 de:|2 eddc d3||

